X:1
T:Title
%%score { ( 1 3 ) | ( 2 4 ) }
L:1/8
M:6/8
K:F
V:1 treble nm="Grand Piano"
V:3 treble 
V:2 bass 
V:4 bass 
V:1
 z3 z2[Q:1/4=90] A | A2 A [EA]2 [EG] | [DF]3- [DF]2 [FA] | [Ec]3- [Ec]2 [EG] | [Ec]3- [Ec]2 [Ed] | %5
 [Fc]2 [CFA] [CEA]2 [B,EG] |[M:5/8] [A,DF]-[A,DF]- [A,DF]3 |[M:1/8] [DFG] |[M:3/4] A6 | %9
[M:5/8] [A,F]-[A,F]- [A,F]3 |[M:1/8] [Fc] |[M:3/4] [Ec]2 [EG] [Fc]2 [Fd] | [DFA]4- [DFA][DFG] | %13
 A6 |[M:5/8] [A,F]-[A,F]- [A,F]3 |] %15
V:2
 z3 z2 [F,CF] | [F,CF]2 [F,CF] [C,C]2 [^C,B,] | [D,A,]3- [D,A,]2 [D,F,] | [C,G,]3- [C,G,]2 [C,C] | %4
 [C,G,]3- [C,G,]2 [C,B,] | [F,A,]2 F, C,2 ^C, |[M:5/8] D,-D,- D,3 |[M:1/8] B,, | %8
[M:3/4] z2 z B,2 C, |[M:5/8] F,-F,- F,3 |[M:1/8] [F,A,] |[M:3/4] [C,C]2 [B,C] [A,C]2 [D,A,] | %12
 D,4- D,B,, | z2 =B, _B,2 C, |[M:5/8] F,-F,- F,3 |] %15
V:3
 x6 | x6 | x6 | x6 | x6 | x6 |[M:5/8] x5 |[M:1/8] x |[M:3/4] [CF]3 E2 [B,EG] |[M:5/8] x5 | %10
[M:1/8] x |[M:3/4] x6 | x6 | [CF]2 D E2 [B,EG] |[M:5/8] x5 |] %15
V:4
 x6 | x6 | x6 | x6 | x6 | x6 |[M:5/8] x5 |[M:1/8] x |[M:3/4] C,6 |[M:5/8] x5 |[M:1/8] x | %11
[M:3/4] x6 | x6 | C,6 |[M:5/8] x5 |] %15

